X: 1
T: Son Ar Rost
R: slide
M: 12/8
L: 1/8
K: Ador
|:A2A ABG AGE c2d|cBA B2c A2G EFG|
A2A ABG AGE c2d|cBA GAB A3 A2 E:|
|:A2B d3 cBA G2A|c2B A3 GAB E2D|
EAB d2e cBA G2A|c2B ABG A3 A2 E:|


Tune 3287	Setting 16349

